src/assets/images/landing/threeDimensionalSvgs/solana_left_coin.svg

<svg width="277" height="270" viewBox="0 0 277 270" fill="none" xmlns="http://www.w3.org/2000/svg">
<g clip-path="url(#clip0_1598_1725)">
<path d="M26.1987 110.394C10.4359 121.304 3.78114 131.103 2.43934 145.321L1.08398 190.522C2.34446 178.161 6.76292 168.01 24.8433 155.581C25.1957 144.454 25.6565 129.612 26.0089 118.471C26.0903 116.045 26.1851 112.82 26.2665 110.339" fill="url(#paint0_linear_1598_1725)"/>
<path d="M26.1987 110.394C10.4359 121.304 3.78114 131.103 2.43934 145.321L1.08398 190.522C2.34446 178.161 6.76292 168.01 24.8433 155.581C25.1957 144.454 25.6565 129.612 26.0089 118.471C26.0903 116.045 26.1851 112.82 26.2665 110.339" stroke="#29252B" stroke-width="1.5" stroke-linecap="round" stroke-linejoin="round"/>
<path d="M250.592 159.62C266.341 148.696 273.009 138.897 274.351 124.679L275.774 79.4779C274.514 91.8388 270.095 101.99 252.015 114.419C251.663 125.546 251.188 140.401 250.849 151.529C250.768 153.955 250.673 157.194 250.592 159.661" fill="url(#paint1_linear_1598_1725)"/>
<path d="M250.592 159.62C266.341 148.696 273.009 138.897 274.351 124.679L275.774 79.4779C274.514 91.8388 270.095 101.99 252.015 114.419C251.663 125.546 251.188 140.401 250.849 151.529C250.768 153.955 250.673 157.194 250.592 159.661" stroke="#29252B" stroke-width="1.5" stroke-linecap="round" stroke-linejoin="round"/>
<path d="M214.39 241.876L193.775 254.075C142.569 283.635 71.6573 257.029 35.3745 194.642C-0.908299 132.255 11.195 57.6838 62.3461 28.1236L82.9745 15.9254C31.8235 45.5128 19.7202 120.057 56.003 182.444C92.2858 244.831 163.198 271.437 214.39 241.876Z" fill="#DDDADA" stroke="#29252B" stroke-width="1.5" stroke-linecap="round" stroke-linejoin="round"/>
<path d="M83.0151 15.9525C134.18 -13.5535 205.132 13.0114 241.415 75.3983C277.698 137.785 265.595 212.289 214.39 241.876C163.184 271.464 92.2722 244.831 56.0029 182.444C19.7337 120.057 31.8234 45.5128 83.0151 15.9525Z" fill="white" stroke="#29252B" stroke-width="1.5" stroke-linecap="round" stroke-linejoin="round"/>
<path d="M96.1287 31.4353L91 34.3498C135.937 8.67053 198.038 31.8651 229.72 86.1783C261.401 140.491 250.642 205.321 205.704 231L210.792 228.086C255.73 202.406 266.489 137.564 234.808 83.2639C203.126 28.9641 141.066 5.82325 96.1287 31.4353Z" fill="#29252B" stroke="#29252B" stroke-width="1.5" stroke-linecap="round" stroke-linejoin="round"/>
<path d="M92.9634 33.4637C137.405 7.80684 198.83 30.9834 230.152 85.2382C261.475 139.493 250.849 204.279 206.393 229.936C161.937 255.593 100.553 232.416 69.2177 178.161C37.8819 123.906 48.535 59.1205 92.9634 33.4637Z" fill="#87DA65" stroke="#29252B" stroke-width="1.5" stroke-linecap="round" stroke-linejoin="round"/>
<path d="M219.08 127.512C220.72 126.712 222.726 128.718 222.278 130.697L215.244 161.043C215.132 161.591 214.9 162.107 214.565 162.554C214.23 163.002 213.8 163.37 213.306 163.632L123.731 207.871C122.091 208.67 120.085 206.664 120.546 204.686L127.566 174.339C127.682 173.791 127.917 173.275 128.254 172.828C128.591 172.38 129.023 172.012 129.518 171.75L219.08 127.512Z" fill="white" stroke="#29252B" stroke-width="1.5" stroke-linecap="round" stroke-linejoin="round"/>
<path d="M181.319 100.649C181.825 100.408 182.378 100.283 182.939 100.283C183.499 100.283 184.052 100.408 184.558 100.649L212.926 113.497C214.769 114.351 215.149 117.17 213.509 117.97L123.947 162.236C123.441 162.477 122.888 162.602 122.327 162.602C121.767 162.602 121.214 162.477 120.708 162.236L92.3401 149.374C90.4969 148.533 90.1174 145.728 91.7573 144.914L181.319 100.649Z" fill="white" stroke="#29252B" stroke-width="1.5" stroke-linecap="round" stroke-linejoin="round"/>
<path d="M181.78 55.5695C183.42 54.7698 185.426 56.7758 184.979 58.7546L177.944 89.1009C177.831 89.6501 177.598 90.1673 177.26 90.6151C176.922 91.0628 176.49 91.4299 175.993 91.6897L86.4309 135.888C84.7909 136.687 82.785 134.681 83.2458 132.703L90.2665 102.356C90.3821 101.815 90.6109 101.305 90.9379 100.859C91.265 100.412 91.6829 100.041 92.164 99.7676L181.78 55.5695Z" fill="white" stroke="#29252B" stroke-width="1.5" stroke-linecap="round" stroke-linejoin="round"/>
<path d="M2.43972 145.321C3.57822 174.109 33.3824 195.632 82.1616 202.896C82.3514 196.635 82.6224 188.286 82.8122 182.01C107.872 197.333 135.444 208.102 164.255 213.821C140.442 239.898 117.618 254.806 80.0879 268.983C80.2912 262.722 80.5488 254.373 80.7385 248.097C31.9458 240.792 2.12799 219.269 1.0166 190.522L2.43972 145.321Z" fill="url(#paint2_linear_1598_1725)" stroke="#29252B" stroke-width="1.5" stroke-linecap="round" stroke-linejoin="round"/>
<path d="M274.35 124.693C273.212 95.9048 243.408 74.3818 194.629 67.1171C194.425 73.3788 194.168 81.7414 193.964 88.0031C168.901 72.6677 141.318 61.8976 112.494 56.193C136.348 30.1702 159.159 15.2206 196.702 1.01652C196.499 7.27825 196.241 15.6408 196.038 21.9025C244.831 29.2079 274.649 50.7444 275.774 79.4779L274.35 124.693Z" fill="url(#paint3_linear_1598_1725)" stroke="#29252B" stroke-width="1.5" stroke-linecap="round" stroke-linejoin="round"/>
</g>
<defs>
<linearGradient id="paint0_linear_1598_1725" x1="44.6044" y1="132.201" x2="-6.89905" y2="162.534" gradientUnits="userSpaceOnUse">
<stop stop-color="#29252B"/>
<stop offset="1" stop-color="#8773A8"/>
</linearGradient>
<linearGradient id="paint1_linear_1598_1725" x1="232.186" y1="137.812" x2="283.69" y2="107.48" gradientUnits="userSpaceOnUse">
<stop stop-color="#29252B"/>
<stop offset="1" stop-color="#8773A8"/>
</linearGradient>
<linearGradient id="paint2_linear_1598_1725" x1="-2.81905" y1="196.133" x2="143.518" y2="232.714" gradientUnits="userSpaceOnUse">
<stop stop-color="#29252B"/>
<stop offset="1" stop-color="#8773A8"/>
</linearGradient>
<linearGradient id="paint3_linear_1598_1725" x1="279.609" y1="73.8803" x2="133.272" y2="37.2858" gradientUnits="userSpaceOnUse">
<stop stop-color="#29252B"/>
<stop offset="1" stop-color="#8773A8"/>
</linearGradient>
<clipPath id="clip0_1598_1725">
<rect width="276.79" height="270" fill="white"/>
</clipPath>
</defs>
</svg>

<svg xmlns="http://www.w3.org/2000/svg" width="277" height="270" fill="none"><g clip-path="url(#a)"><path fill="url(#b)" d="M26.199 110.394c-15.763 10.91-22.418 20.709-23.76 34.927l-1.355 45.201c1.26-12.361 5.679-22.512 23.76-34.941.352-11.127.813-25.969 1.165-37.11.081-2.426.176-5.651.258-8.132"/><path stroke="#29252B" stroke-linecap="round" stroke-linejoin="round" stroke-width="1.5" d="M26.199 110.394c-15.763 10.91-22.418 20.709-23.76 34.927l-1.355 45.201c1.26-12.361 5.679-22.512 23.76-34.941.352-11.127.813-25.969 1.165-37.11.081-2.426.176-5.651.258-8.132"/><path fill="url(#c)" d="M250.592 159.62c15.749-10.924 22.417-20.723 23.759-34.941l1.423-45.201c-1.26 12.36-5.679 22.512-23.759 34.941-.352 11.127-.827 25.982-1.166 37.11-.081 2.426-.176 5.665-.257 8.132"/><path stroke="#29252B" stroke-linecap="round" stroke-linejoin="round" stroke-width="1.5" d="M250.592 159.62c15.749-10.924 22.417-20.723 23.759-34.941l1.423-45.201c-1.26 12.36-5.679 22.512-23.759 34.941-.352 11.127-.827 25.982-1.166 37.11-.081 2.426-.176 5.665-.257 8.132"/><path fill="#DDDADA" stroke="#29252B" stroke-linecap="round" stroke-linejoin="round" stroke-width="1.5" d="m214.39 241.876-20.615 12.199c-51.206 29.56-122.118 2.954-158.4-59.433S11.194 57.684 62.345 28.124l20.629-12.199C31.824 45.513 19.72 120.057 56.003 182.444s107.195 88.993 158.387 59.432"/><path fill="#fff" stroke="#29252B" stroke-linecap="round" stroke-linejoin="round" stroke-width="1.5" d="M83.015 15.953c51.165-29.506 122.117-2.942 158.4 59.445s24.18 136.891-27.025 166.478c-51.206 29.588-122.118 2.955-158.387-59.432S31.823 45.513 83.015 15.953"/><path fill="#29252B" stroke="#29252B" stroke-linecap="round" stroke-linejoin="round" stroke-width="1.5" d="M96.129 31.435 91 34.35c44.937-25.68 107.038-2.485 138.72 51.828 31.681 54.313 20.922 119.143-24.016 144.822l5.088-2.914c44.938-25.68 55.697-90.522 24.016-144.822s-93.742-77.44-138.68-51.829"/><path fill="#87DA65" stroke="#29252B" stroke-linecap="round" stroke-linejoin="round" stroke-width="1.5" d="M92.963 33.464c44.442-25.657 105.867-2.48 137.189 51.774 31.323 54.255 20.697 119.041-23.759 144.698s-105.84 2.48-137.175-51.775S48.535 59.121 92.963 33.464"/><path fill="#fff" stroke="#29252B" stroke-linecap="round" stroke-linejoin="round" stroke-width="1.5" d="M219.08 127.512c1.64-.8 3.646 1.206 3.198 3.185l-7.034 30.346a3.78 3.78 0 0 1-1.938 2.589l-89.575 44.239c-1.64.799-3.646-1.207-3.185-3.185l7.02-30.347a3.83 3.83 0 0 1 1.952-2.589zM181.319 100.649a3.77 3.77 0 0 1 3.239 0l28.368 12.848c1.843.854 2.223 3.673.583 4.473l-89.562 44.266a3.77 3.77 0 0 1-3.239 0L92.34 149.374c-1.843-.841-2.223-3.646-.583-4.46zM181.78 55.57c1.64-.8 3.646 1.206 3.199 3.185L177.944 89.1a3.78 3.78 0 0 1-1.951 2.589l-89.562 44.198c-1.64.799-3.646-1.207-3.185-3.185l7.02-30.347a3.92 3.92 0 0 1 1.898-2.588z"/><path fill="url(#d)" stroke="#29252B" stroke-linecap="round" stroke-linejoin="round" stroke-width="1.5" d="M2.44 145.321c1.138 28.788 30.942 50.311 79.722 57.575.19-6.261.46-14.61.65-20.886a249.1 249.1 0 0 0 81.443 31.811c-23.813 26.077-46.637 40.985-84.167 55.162.203-6.261.46-14.61.65-20.886-48.792-7.305-78.61-28.828-79.721-57.575z"/><path fill="url(#e)" stroke="#29252B" stroke-linecap="round" stroke-linejoin="round" stroke-width="1.5" d="M274.35 124.693c-1.138-28.788-30.942-50.311-79.721-57.576-.204 6.262-.461 14.624-.665 20.886a248.6 248.6 0 0 0-81.47-31.81c23.854-26.023 46.665-40.972 84.208-55.176-.203 6.261-.461 14.624-.664 20.886 48.793 7.305 78.611 28.841 79.736 57.575z"/></g><defs><linearGradient id="b" x1="44.604" x2="-6.899" y1="132.201" y2="162.534" gradientUnits="userSpaceOnUse"><stop stop-color="#29252B"/><stop offset="1" stop-color="#8773A8"/></linearGradient><linearGradient id="c" x1="232.186" x2="283.69" y1="137.812" y2="107.48" gradientUnits="userSpaceOnUse"><stop stop-color="#29252B"/><stop offset="1" stop-color="#8773A8"/></linearGradient><linearGradient id="d" x1="-2.819" x2="143.518" y1="196.133" y2="232.714" gradientUnits="userSpaceOnUse"><stop stop-color="#29252B"/><stop offset="1" stop-color="#8773A8"/></linearGradient><linearGradient id="e" x1="279.609" x2="133.272" y1="73.88" y2="37.286" gradientUnits="userSpaceOnUse"><stop stop-color="#29252B"/><stop offset="1" stop-color="#8773A8"/></linearGradient><clipPath id="a"><path fill="#fff" d="M0 0h276.79v270H0z"/></clipPath></defs></svg>
